assets/build/img/crown.svg

<svg width="21" height="21" viewBox="0 0 21 21" fill="none" xmlns="http://www.w3.org/2000/svg">
<path d="M3.18576 14.9375V16.3479C3.18576 16.6895 3.46262 16.9663 3.8042 16.9663H17.1958C17.5374 16.9663 17.8142 16.6895 17.8142 16.3479V14.9375H3.18576Z" fill="#00642F"/>
<path d="M21 7.31376C21 6.21194 20.1036 5.31553 19.0018 5.31553C17.9 5.31553 17.0037 6.21194 17.0037 7.31376C17.0037 7.84344 17.2112 8.32537 17.5489 8.6833C16.9483 9.35525 16.076 9.77934 15.1061 9.77934C13.536 9.77934 12.2209 8.66936 11.9027 7.19312C12.2701 6.83054 12.4982 6.3273 12.4982 5.77167C12.4982 4.66985 11.6018 3.77344 10.5 3.77344C9.39819 3.77344 8.50177 4.66985 8.50177 5.77167C8.50177 6.3273 8.73008 6.83054 9.0973 7.19312C8.77911 8.66936 7.46404 9.77934 5.89391 9.77934C4.92396 9.77934 4.05173 9.35525 3.45108 8.6833C3.78882 8.32537 3.99646 7.84344 3.99646 7.31376C3.99646 6.21194 3.10004 5.31553 1.99823 5.31553C0.896416 5.31553 0 6.21194 0 7.31376C0 8.26865 0.673393 9.06878 1.57013 9.26521C1.74749 10.729 2.09019 12.5123 2.75189 13.9379H18.2481C18.9098 12.5123 19.2525 10.729 19.4299 9.26521C20.3266 9.06862 21 8.26865 21 7.31376Z" fill="#00642F"/>
</svg>

<svg width="21" height="21" viewBox="0 0 21 21" fill="none" xmlns="http://www.w3.org/2000/svg"><path d="M3.186 14.938v1.41c0 .341.277.618.618.618h13.392a.618.618 0 00.618-.618v-1.41H3.186zM21 7.314a2 2 0 00-1.998-1.998 2 2 0 00-1.998 1.998c0 .53.207 1.011.545 1.37a3.27 3.27 0 01-2.443 1.095 3.283 3.283 0 01-3.203-2.586c.367-.362.595-.866.595-1.421A2 2 0 0010.5 3.773a2 2 0 00-1.998 1.999c0 .555.228 1.059.595 1.421A3.283 3.283 0 015.894 9.78 3.27 3.27 0 013.45 8.683a1.99 1.99 0 00.545-1.37 2 2 0 00-1.998-1.997A2 2 0 000 7.314a2 2 0 001.57 1.951c.177 1.464.52 3.247 1.182 4.673h15.496c.662-1.426 1.005-3.209 1.182-4.673A2.001 2.001 0 0021 7.314z" fill="#00642F"/></svg>
